X: 1
T: Munster Buttermilk
T: Behind the Haystack
D: Boys of the Lough
Z: 1997 John Chambers <jc:trillian.mit.edu>
M: 6/8
L: 1/8
R: Jig
K: D
A \
|: d2e fdB | d2e fdB | AFE E2B | AFE E2B | d2e fdB | d2e fdB | AFD D2B | AFD D2A :|
|: ~B3 BAF | ABc d2B | AFE E2B | AFE E2A | ~B3 BAF | ABc d2B | AFD D2B | AFD D2f :|
|: ~g3 fgf | ede fdB | AFE E2B | AFE E2f | ~g3 fgf | ede fdB | AFD D2B | AFD D3  :|
